X:1
T:Fermoy Lasses, The
R:Reel
%%printtempo 0
Q:180
S:O'Neill's
M:C|
K:G
BA|:\
"Em"GE (3.E.E.E BE (3.E.E.E|GE (3.E.E.E BcBA|GE (3.E.E.E BE (3.E.E.E|"D"AFDF AcBA|
"Em"GE (3.E.E.E BE (3.E.E.E|GE (3.E.E.E BcBA|"G"G2 GF GBdB|"D"AFDF AcBA:|
|:"G"G2 BG dGBA|GABd "C"egdB| "G"G2BG dGBG| "D"AFDF AcBA|
"G"G2 BG dGBA|GABd g3b|"C"afge "G"d3B|"D"AFDF AcBA:|
